; generated by PrusaSlicer 2.6.0-alpha6 on 2023-04-24 at 02:51:52 UTC

; 

; external perimeters extrusion width = 0.42mm
; perimeters extrusion width = 0.44mm
; infill extrusion width = 0.44mm
; solid infill extrusion width = 0.44mm
; top infill extrusion width = 0.40mm
; support material extrusion width = 0.36mm
; first layer extrusion width = 0.42mm

; external perimeters extrusion width = 0.42mm
; perimeters extrusion width = 0.44mm
; infill extrusion width = 0.44mm
; solid infill extrusion width = 0.44mm
; top infill extrusion width = 0.40mm
; support material extrusion width = 0.36mm
; first layer extrusion width = 0.42mm

M201 X500 Y500 Z100 E5000 ; sets maximum accelerations, mm/sec^2
M203 X500 Y500 Z10 E60 ; sets maximum feedrates, mm / sec
M204 S500 T1000 ; sets acceleration (S) and retract acceleration (R), mm/sec^2
M205 X8.00 Y8.00 Z0.40 E5.00 ; sets the jerk limits, mm/sec
M205 S0 T0 ; sets the minimum extruding and travel feed rate, mm/sec
;TYPE:Custom
G90 ; use absolute coordinates
M83 ; extruder relative mode
M104 S150 ; set temporary nozzle temp to prevent oozing during homing
M140 S80 ; set final bed temp
G4 S30 ; allow partial nozzle warmup
G28 ; home all axis and restore leveling
G1 Z50 F240
G1 X2.0 Y10 F3000
M104 S255 ; set final nozzle temp
M190 S80 ; wait for bed temp to stabilize
M109 S255 ; wait for nozzle temp to stabilize
G1 Z0.28 F240
G92 E0
G1 X2.0 Y140 E10 F1500 ; prime the nozzle
G1 X2.3 Y140 F5000
G92 E0
G1 X2.3 Y10 E10 F1200 ; prime the nozzle
G92 E0
G21 ; set units to millimeters
G90 ; use absolute coordinates
M83 ; use relative distances for extrusion
; Filament gcode
M107
;LAYER_CHANGE
;Z:0.28
;HEIGHT:0.28
;BEFORE_LAYER_CHANGE
G92 E0
;0.28


G1 E-.8 F1800
G1 Z.28 F9000
;AFTER_LAYER_CHANGE
;0.28
G1 X46.219 Y33.305
G1 E.8 F1800
M204 S500
;TYPE:Skirt/Brim
;WIDTH:0.42
G1 F1200
G1 X47.497 Y31.758 E.08407
G1 X49.454 Y30.599 E.09529
G1 X57.021 Y29.147 E.32282
G1 X57.917 Y29.061 E.03771
G1 X165.754 Y29.062 E4.5181
G1 X167.333 Y29.456 E.06818
G1 X168.13 Y30.046 E.04155
G1 X169.765 Y31.681 E.09688
G1 X170.737 Y33.781 E.09695
G1 X173.356 Y65.797 E1.34587
G1 X169.314 Y147.629 E3.43273
G1 X168.842 Y149.186 E.06817
G1 X168.334 Y149.838 E.03463
G1 X166.7 Y151.472 E.09682
G1 X164.819 Y152.42 E.08825
G1 X108.3 Y160.842 E2.39415
G1 X106.982 Y160.954 E.05542
G1 X105.138 Y160.842 E.0774
G1 X48.518 Y152.42 E2.39833
G1 X46.637 Y151.472 E.08825
G1 X45.002 Y149.838 E.09685
G1 X44.135 Y148.339 E.07255
G1 X31.874 Y103.01 E1.96742
G1 X31.63 Y101.461 E.0657
G1 X31.598 Y99.846 E.06768
G1 X31.834 Y97.998 E.07806
G1 X45.525 Y34.735 E2.71192
G1 X46.192 Y33.359 E.06407
; printing object autonomousTechHolder id:0 copy 0
;WIPE_START
G1 F7200
G1 X47.497 Y31.758 E-.49055
G1 X48.618 Y31.094 E-.30945
;WIPE_END
G1 X165.754 Y32.422 F9000
G1 E.8 F1800
;TYPE:Support material
G1 F1200
G1 X167.389 Y34.056 E.09685
G1 X167.389 Y42.368 E.34825
G1 X165.754 Y44.002 E.09685
G1 X50.443 Y44.001 E4.83124
G1 X48.809 Y42.367 E.09682
G1 X48.809 Y35.446 E.28997
G1 X50.087 Y33.898 E.0841
G1 X57.654 Y32.446 E.32282
G1 X57.917 Y32.421 E.01107
G1 X165.7 Y32.422 E4.51583
;WIPE_START
G1 F7200
G1 X162.332 Y32.422 E-.8
;WIPE_END
G1 X57.402 Y32.824 F9000
G1 E.8 F1800
G1 F1200
G1 X165.699 Y32.824 E4.53737
G1 X166.099 Y33.224 E.0237
G1 X55.318 Y33.224 E4.64144
G1 X54.735 Y33.336 E.02487
;WIPE_START
G1 F7200
G1 X55.318 Y33.224 E-.14099
G1 X58.093 Y33.224 E-.65901
;WIPE_END
G1 X53.234 Y33.624 F9000
G1 E.8 F1800
G1 F1200
G1 X166.498 Y33.624 E4.74547
G1 X166.898 Y34.024 E.0237
G1 X51.15 Y34.024 E4.84955
G1 X50.263 Y34.194 E.03784
G1 X50.073 Y34.424 E.0125
G1 X167.065 Y34.424 E4.90167
G1 X167.065 Y34.824 E.01676
G1 X49.742 Y34.824 E4.91554
G1 X49.412 Y35.224 E.02173
G1 X167.065 Y35.224 E4.92936
G1 X167.065 Y35.624 E.01676
G1 X49.133 Y35.624 E4.94105
G1 X49.133 Y36.024 E.01676
G1 X167.065 Y36.024 E4.94105
G1 X167.065 Y36.424 E.01676
G1 X49.133 Y36.424 E4.94105
G1 X49.133 Y36.823 E.01672
G1 X167.065 Y36.823 E4.94105
G1 X167.065 Y37.223 E.01676
G1 X49.133 Y37.223 E4.94105
G1 X49.133 Y37.623 E.01676
G1 X167.065 Y37.623 E4.94105
G1 X167.065 Y38.023 E.01676
G1 X49.133 Y38.023 E4.94105
G1 X49.133 Y38.423 E.01676
G1 X167.065 Y38.423 E4.94105
G1 X167.065 Y38.823 E.01676
G1 X49.133 Y38.823 E4.94105
G1 X49.133 Y39.223 E.01676
G1 X167.065 Y39.223 E4.94105
G1 X167.065 Y39.623 E.01676
G1 X49.133 Y39.623 E4.94105
G1 X49.133 Y40.023 E.01676
G1 X167.065 Y40.023 E4.94105
G1 X167.065 Y40.423 E.01676
G1 X49.133 Y40.423 E4.94105
G1 X49.133 Y40.823 E.01676
G1 X167.065 Y40.823 E4.94105
G1 X167.065 Y41.222 E.01672
G1 X49.133 Y41.222 E4.94105
G1 X49.133 Y41.622 E.01676
G1 X167.065 Y41.622 E4.94105
G1 X167.065 Y42.022 E.01676
G1 X49.133 Y42.022 E4.94105
G1 X49.133 Y42.233 E.00884
G1 X49.322 Y42.422 E.0112
G1 X166.876 Y42.422 E4.92521
G1 X166.476 Y42.822 E.0237
G1 X49.722 Y42.822 E4.8917
G1 X50.122 Y43.222 E.0237
G1 X166.076 Y43.222 E4.85818
G1 X165.677 Y43.622 E.02367
G1 X50.522 Y43.622 E4.8247
; stop printing object autonomousTechHolder id:0 copy 0
; printing object autonomousTechHolder id:0 copy 0
;WIPE_START
G1 F7200
G1 X53.89 Y43.622 E-.8
;WIPE_END
G1 X162.405 Y57.744 F9000
G1 E.8 F1800
G1 F1200
G1 X163.116 Y57.819 E.02995
G1 X164.245 Y58.1 E.04875
G1 X165.323 Y58.536 E.04872
G1 X166.331 Y59.118 E.04877
G1 X166.691 Y59.4 E.01916
G1 X167.247 Y59.834 E.02955
G1 X168.055 Y60.671 E.04874
G1 X168.738 Y61.612 E.04872
G1 X169.284 Y62.64 E.04877
G1 X169.682 Y63.733 E.04874
G1 X169.923 Y64.87 E.0487
G1 X170.004 Y66.031 E.04876
G1 X169.923 Y67.191 E.04872
G1 X169.681 Y68.328 E.0487
G1 X169.283 Y69.421 E.04874
G1 X168.736 Y70.447 E.04871
G1 X168.053 Y71.388 E.04872
G1 X167.245 Y72.224 E.04871
G1 X166.329 Y72.94 E.04871
G1 X165.958 Y73.154 E.01794
G1 X165.958 Y147.462 E3.11332
G1 X164.324 Y149.097 E.09685
G1 X113.462 Y149.097 E2.13099
G1 X113.576 Y149.573 E.02051
G1 X113.662 Y150.659 E.04564
G1 X113.577 Y151.745 E.04564
G1 X113.323 Y152.805 E.04567
G1 X112.906 Y153.811 E.04563
G1 X112.337 Y154.741 E.04568
G1 X111.63 Y155.57 E.04565
G1 X110.801 Y156.278 E.04568
G1 X109.872 Y156.847 E.04564
G1 X108.865 Y157.264 E.04567
G1 X108.249 Y157.413 E.02655
G1 X107.805 Y157.519 E.01913
G1 X106.719 Y157.605 E.04564
G1 X105.632 Y157.519 E.04568
G1 X104.572 Y157.265 E.04567
G1 X103.565 Y156.847 E.04568
G1 X102.636 Y156.278 E.04564
G1 X101.808 Y155.57 E.04564
G1 X101.1 Y154.741 E.04568
G1 X100.531 Y153.811 E.04568
G1 X100.114 Y152.805 E.04563
G1 X99.86 Y151.745 E.04567
G1 X99.775 Y150.659 E.04564
G1 X99.861 Y149.573 E.04564
G1 X99.975 Y149.097 E.02051
G1 X49.012 Y149.097 E2.13522
G1 X47.378 Y147.462 E.09685
G1 X47.378 Y107.487 E1.67485
G1 X46.784 Y107.829 E.02872
G1 X45.717 Y108.259 E.0482
G1 X44.602 Y108.536 E.04814
G1 X43.458 Y108.655 E.04819
G1 X42.31 Y108.614 E.04813
G1 X41.178 Y108.414 E.04816
G1 X40.085 Y108.058 E.04816
G1 X39.053 Y107.553 E.04814
G1 X38.1 Y106.91 E.04817
G1 X37.247 Y106.141 E.04812
G1 X36.509 Y105.26 E.04815
G1 X35.901 Y104.286 E.04811
G1 X35.434 Y103.237 E.04811
G1 X35.117 Y102.132 E.04816
G1 X34.958 Y100.995 E.0481
G1 X34.958 Y99.846 E.04814
G1 X35.118 Y98.709 E.04811
G1 X35.434 Y97.604 E.04815
G1 X35.901 Y96.555 E.04811
G1 X36.51 Y95.581 E.04813
G1 X37.248 Y94.7 E.04815
G1 X38.102 Y93.931 E.04815
G1 X39.054 Y93.289 E.04811
G1 X40.087 Y92.784 E.04818
G1 X41.179 Y92.429 E.04811
G1 X42.311 Y92.229 E.04816
G1 X43.459 Y92.188 E.04813
G1 X44.603 Y92.307 E.04819
G1 X45.718 Y92.584 E.04814
G1 X46.784 Y93.014 E.04816
G1 X47.378 Y93.357 E.02874
G1 X47.378 Y72.151 E.88848
G1 X49.012 Y70.517 E.09682
G1 X154.667 Y70.517 E4.42668
G1 X154.309 Y69.944 E.02831
G1 X153.835 Y68.881 E.04876
G1 X153.515 Y67.764 E.04868
G1 X153.352 Y66.612 E.04875
G1 X153.352 Y65.449 E.04873
G1 X153.514 Y64.297 E.04874
G1 X153.834 Y63.179 E.04872
G1 X154.307 Y62.116 E.04875
G1 X154.923 Y61.13 E.04871
G1 X155.671 Y60.239 E.04874
G1 X156.535 Y59.46 E.04874
G1 X157.499 Y58.81 E.04871
G1 X158.545 Y58.299 E.04877
G1 X159.651 Y57.94 E.04872
G1 X160.796 Y57.738 E.04871
G1 X161.959 Y57.697 E.04876
G1 X162.351 Y57.738 E.01651
;WIPE_START
G1 F7200
G1 X161.959 Y57.697 E-.09361
G1 X160.796 Y57.738 E-.27638
G1 X159.651 Y57.94 E-.27614
G1 X159.035 Y58.14 E-.15387
;WIPE_END
G1 X160.387 Y58.139 F9000
G1 E.8 F1800
G1 F1200
G1 X161.948 Y58.022 E.06559
G1 X163.06 Y58.139 E.04685
;WIPE_START
G1 F7200
G1 X161.948 Y58.022 E-.26556
G1 X160.387 Y58.139 E-.37178
;WIPE_END
G1 E-.16266 F1800
G1 X42.936 Y92.53 F9000
G1 E.8 F1800
G1 F1200
G1 X43.448 Y92.512 E.02146
;WIPE_START
G1 F7200
G1 X42.936 Y92.53 E-.12168
;WIPE_END
G1 E-.67832 F1800
G1 X164.198 Y58.431 F9000
G1 E.8 F1800
G1 F1200
G1 X163.782 Y58.319 E.01805
G1 X159.533 Y58.319 E.17802
G1 X159.188 Y58.431 E.0152
G1 X158.424 Y58.719 F9000
G1 F1200
G1 X164.91 Y58.719 E.27175
G1 X165.181 Y58.828 E.01224
G1 X165.684 Y59.119 E.02435
G1 X157.62 Y59.119 E.33786
G1 X157.027 Y59.519 E.02997
G1 X166.317 Y59.519 E.38923
G1 X166.829 Y59.918 E.0272
G1 X156.51 Y59.918 E.43234
G1 X156.066 Y60.318 E.02504
G1 X167.264 Y60.318 E.46917
G1 X167.65 Y60.718 E.02329
G1 X155.691 Y60.718 E.50105
G1 X155.356 Y61.118 E.02186
G1 X167.979 Y61.118 E.52887
G1 X168.27 Y61.518 E.02072
G1 X155.062 Y61.518 E.55338
G1 X154.813 Y61.918 E.01974
G1 X168.534 Y61.918 E.57488
G1 X168.747 Y62.318 E.01899
G1 X154.572 Y62.318 E.5939
G1 X154.394 Y62.718 E.01834
G1 X168.959 Y62.718 E.61024
G1 X169.113 Y63.118 E.01796
G1 X154.216 Y63.118 E.62415
G1 X154.139 Y63.29 E.0079
G1 X154.074 Y63.518 E.00993
G1 X169.259 Y63.518 E.63621
G1 X169.39 Y63.918 E.01763
G1 X153.959 Y63.917 E.64652
G1 X153.845 Y64.317 E.01743
G1 X169.475 Y64.317 E.65486
G1 X169.56 Y64.717 E.01713
G1 X153.782 Y64.717 E.66106
G1 X153.726 Y65.117 E.01692
G1 X169.616 Y65.117 E.66575
G1 X169.644 Y65.517 E.0168
G1 X153.676 Y65.517 E.66902
G1 X153.676 Y65.917 E.01676
G1 X169.671 Y65.917 E.67015
G1 X169.659 Y66.317 E.01677
G1 X153.676 Y66.317 E.66965
G1 X153.694 Y66.717 E.01678
G1 X169.631 Y66.717 E.66772
G1 X169.603 Y67.117 E.0168
G1 X153.751 Y67.117 E.66416
G1 X153.807 Y67.517 E.01692
G1 X169.522 Y67.517 E.65842
G1 X169.437 Y67.917 E.01713
G1 X153.896 Y67.917 E.65113
G1 X154.01 Y68.316 E.01739
G1 X169.34 Y68.316 E.64229
G1 X169.194 Y68.716 E.01784
G1 X154.125 Y68.716 E.63135
G1 X154.295 Y69.116 E.01821
G1 X169.049 Y69.116 E.61816
G1 X168.986 Y69.289 E.00771
G1 X168.865 Y69.516 E.01078
G1 X154.473 Y69.516 E.60299
G1 X154.595 Y69.791 E.0126
G1 X154.673 Y69.916 E.00617
G1 X168.652 Y69.916 E.58568
G1 X168.432 Y70.316 E.01913
G1 X154.923 Y70.316 E.56599
G1 X155.173 Y70.716 E.01976
G1 X168.141 Y70.716 E.54333
G1 X167.85 Y71.116 E.02072
G1 X48.871 Y71.116 E4.98492
G1 X48.471 Y71.516 E.0237
G1 X167.479 Y71.516 E4.98613
G1 X167.093 Y71.916 E.02329
G1 X48.071 Y71.916 E4.98672
G1 X47.702 Y72.285 E.02186
G1 X47.702 Y72.315 E.00126
G1 X166.602 Y72.315 E4.98161
G1 X166.07 Y72.715 E.02789
G1 X47.702 Y72.715 E4.95932
G1 X47.702 Y73.115 E.01676
G1 X165.634 Y73.115 E4.94105
G1 X165.634 Y73.515 E.01676
G1 X47.702 Y73.515 E4.94105
G1 X47.702 Y73.915 E.01676
G1 X165.634 Y73.915 E4.94105
G1 X165.634 Y74.315 E.01676
G1 X47.702 Y74.315 E4.94105
G1 X47.702 Y74.715 E.01676
G1 X165.634 Y74.715 E4.94105
G1 X165.634 Y75.115 E.01676
G1 X47.702 Y75.115 E4.94105
G1 X47.702 Y75.515 E.01676
G1 X165.634 Y75.515 E4.94105
G1 X165.634 Y75.915 E.01676
G1 X47.702 Y75.915 E4.94105
G1 X47.702 Y76.314 E.01672
G1 X165.634 Y76.314 E4.94105
G1 X165.634 Y76.714 E.01676
G1 X47.702 Y76.714 E4.94105
G1 X47.702 Y77.114 E.01676
G1 X165.634 Y77.114 E4.94105
G1 X165.634 Y77.514 E.01676
G1 X47.702 Y77.514 E4.94105
G1 X47.702 Y77.914 E.01676
G1 X165.634 Y77.914 E4.94105
G1 X165.634 Y78.314 E.01676
G1 X47.702 Y78.314 E4.94105
G1 X47.702 Y78.714 E.01676
G1 X165.634 Y78.714 E4.94105
G1 X165.634 Y79.114 E.01676
G1 X47.702 Y79.114 E4.94105
G1 X47.702 Y79.514 E.01676
G1 X165.634 Y79.514 E4.94105
G1 X165.634 Y79.914 E.01676
G1 X47.702 Y79.914 E4.94105
G1 X47.702 Y80.313 E.01672
G1 X165.634 Y80.313 E4.94105
G1 X165.634 Y80.713 E.01676
G1 X47.702 Y80.713 E4.94105
G1 X47.702 Y81.113 E.01676
G1 X165.634 Y81.113 E4.94105
G1 X165.634 Y81.513 E.01676
G1 X47.702 Y81.513 E4.94105
G1 X47.702 Y81.913 E.01676
G1 X165.634 Y81.913 E4.94105
G1 X165.634 Y82.313 E.01676
G1 X47.702 Y82.313 E4.94105
G1 X47.702 Y82.713 E.01676
G1 X165.634 Y82.713 E4.94105
G1 X165.634 Y83.113 E.01676
G1 X47.702 Y83.113 E4.94105
G1 X47.702 Y83.513 E.01676
G1 X165.634 Y83.513 E4.94105
G1 X165.634 Y83.913 E.01676
G1 X47.702 Y83.913 E4.94105
G1 X47.702 Y84.312 E.01672
G1 X165.634 Y84.312 E4.94105
G1 X165.634 Y84.712 E.01676
G1 X47.702 Y84.712 E4.94105
G1 X47.702 Y85.112 E.01676
G1 X165.634 Y85.112 E4.94105
G1 X165.634 Y85.512 E.01676
G1 X47.702 Y85.512 E4.94105
G1 X47.702 Y85.912 E.01676
G1 X165.634 Y85.912 E4.94105
G1 X165.634 Y86.312 E.01676
G1 X47.702 Y86.312 E4.94105
G1 X47.702 Y86.712 E.01676
G1 X165.634 Y86.712 E4.94105
G1 X165.634 Y87.112 E.01676
G1 X47.702 Y87.112 E4.94105
G1 X47.702 Y87.512 E.01676
G1 X165.634 Y87.512 E4.94105
G1 X165.634 Y87.912 E.01676
G1 X47.702 Y87.912 E4.94105
G1 X47.702 Y88.311 E.01672
G1 X165.634 Y88.311 E4.94105
G1 X165.634 Y88.711 E.01676
G1 X47.702 Y88.711 E4.94105
G1 X47.702 Y89.111 E.01676
G1 X165.634 Y89.111 E4.94105
G1 X165.634 Y89.511 E.01676
G1 X47.702 Y89.511 E4.94105
G1 X47.702 Y89.911 E.01676
G1 X165.634 Y89.911 E4.94105
G1 X165.634 Y90.311 E.01676
G1 X47.702 Y90.311 E4.94105
G1 X47.702 Y90.711 E.01676
G1 X165.634 Y90.711 E4.94105
G1 X165.634 Y91.111 E.01676
G1 X47.702 Y91.111 E4.94105
G1 X47.702 Y91.511 E.01676
G1 X165.634 Y91.511 E4.94105
G1 X165.634 Y91.911 E.01676
G1 X47.702 Y91.911 E4.94105
G1 X47.702 Y92.31 E.01672
G1 X165.634 Y92.31 E4.94105
G1 X165.634 Y92.71 E.01676
G1 X47.702 Y92.71 E4.94105
G1 X47.702 Y93.11 E.01676
G1 X165.634 Y93.11 E4.94105
G1 X165.634 Y93.51 E.01676
G1 X47.702 Y93.51 E4.94105
G1 X47.702 Y93.91 E.01676
G1 X165.634 Y93.91 E4.94105
G1 X165.634 Y94.31 E.01676
G1 X38.165 Y94.31 E5.34063
G1 X38.302 Y94.187 E.00771
G1 X38.712 Y93.91 E.02073
G1 X47.69 Y93.91 E.37616
G1 X46.996 Y93.51 E.03356
G1 X39.338 Y93.51 E.32085
G1 X39.739 Y93.314 E.0187
;WIPE_START
G1 F7200
G1 X39.338 Y93.51 E-.10601
G1 X42.26 Y93.51 E-.69399
;WIPE_END
G1 X45.332 Y92.822 F9000
G1 E.8 F1800
G1 F1200
G1 X44.882 Y92.71 E.01943
G1 X41.447 Y92.71 E.14392
G1 X41.258 Y92.744 E.00805
G1 X41.016 Y92.822 E.01065
;WIPE_START
G1 F7200
G1 X41.258 Y92.744 E-.06039
G1 X41.447 Y92.71 E-.04561
G1 X44.369 Y92.71 E-.694
;WIPE_END
G1 X46.457 Y93.232 F9000
G1 E.8 F1800
G1 F1200
G1 X46.156 Y93.11 E.01361
G1 X40.157 Y93.11 E.25134
G1 X39.926 Y93.223 E.01077
;WIPE_START
G1 F7200
G1 X40.157 Y93.11 E-.06107
G1 X43.268 Y93.11 E-.73893
;WIPE_END
G1 X38.032 Y94.43 F9000
G1 E.8 F1800
G1 F1200
G1 X37.722 Y94.71 E.0175
G1 X165.634 Y94.71 E5.35919
G1 X165.634 Y95.11 E.01676
G1 X37.328 Y95.11 E5.3757
G1 X36.992 Y95.51 E.02189
G1 X165.634 Y95.51 E5.38977
G1 X165.634 Y95.91 E.01676
G1 X36.686 Y95.91 E5.40259
G1 X36.437 Y96.309 E.01971
G1 X165.634 Y96.309 E5.41303
G1 X165.634 Y96.709 E.01676
G1 X36.187 Y96.709 E5.4235
G1 X36.009 Y97.109 E.01834
G1 X165.634 Y97.109 E5.43096
G1 X165.634 Y97.509 E.01676
G1 X35.831 Y97.509 E5.43842
G1 X35.739 Y97.715 E.00945
G1 X35.684 Y97.909 E.00845
G1 X165.634 Y97.909 E5.44458
G1 X165.634 Y98.309 E.01676
G1 X35.569 Y98.309 E5.44939
G1 X35.455 Y98.709 E.01743
G1 X165.634 Y98.709 E5.45417
G1 X165.634 Y99.109 E.01676
G1 X35.388 Y99.109 E5.45698
G1 X35.332 Y99.509 E.01692
G1 X165.634 Y99.509 E5.45932
G1 X165.634 Y99.909 E.01676
G1 X35.282 Y99.909 E5.46142
G1 X35.282 Y100.308 E.01672
G1 X165.634 Y100.308 E5.46142
G1 X165.634 Y100.708 E.01676
G1 X35.282 Y100.708 E5.46142
G1 X35.282 Y100.972 E.01106
G1 X35.301 Y101.108 E.00575
G1 X165.634 Y101.108 E5.46062
G1 X165.634 Y101.508 E.01676
G1 X35.357 Y101.508 E5.45828
G1 X35.413 Y101.908 E.01692
G1 X165.634 Y101.908 E5.45593
G1 X165.634 Y102.308 E.01676
G1 X35.505 Y102.308 E5.45208
G1 X35.619 Y102.708 E.01743
G1 X165.634 Y102.708 E5.4473
G1 X165.634 Y103.108 E.01676
G1 X35.734 Y103.108 E5.44248
G1 X35.909 Y103.508 E.01829
G1 X165.634 Y103.508 E5.43515
G1 X165.634 Y103.908 E.01676
G1 X36.087 Y103.908 E5.42769
G1 X36.187 Y104.134 E.01035
G1 X36.296 Y104.307 E.00857
